X: 1
T:Bower Processional, Lichfield 1
M:2/4
L:1/8
A:Lichfield
P:(AB)6
K:G
P:A
G2D2|B2G2|dBGE|DzDE/F/|\
          GzGz|GzBc   ||
P:B
d2dd|d2dd|egfe|d3d    |
dccc|cBBB|dcBA|GzBz   ||
